X:534
T: HAIJO BOBAJO
N: E1811
O: Europa, Mitteleuropa, Deutschland, Hessen, Odenwald
R: Kinder -, Wiegen -, Schlaf - Lied
M: 2/4
L: 1/8
K: G
 | B2AB | G2D
D | BBAB | G2Dz
BBcc | AcB2
GGAA | FFGz
BBcc | AcB2
GGAA | FFGz

